X:1
T:Van Sant, 10.7.10.7 D
T:Van Sant, 10.7.10.7 D
T:Samuel Monroe Vansant, 1900
T:Public Domain Courtesy of the Cyber Hymnal™
C:Samuel Monroe Vansant, 1900
Z:Public Domain
Z:Courtesy of the Cyber Hymnal™
%%score ( 1 2 ) ( 3 4 )
L:1/8
Q:1/4=108
M:4/4
K:F
V:1 treble 
V:2 treble 
V:3 bass 
V:4 bass 
V:1
 [FA]2 [Fc]2 [CF]2 [FA]2 | [DG][DF][CE][B,D] [B,D]2 [A,C]2 | [CF]2 (EF) [FB]2 [FA]2 | %3
 [DA]2 G2 [EG]4 | [FA]2 [Fc]2 [CF]2 [FA]2 | [DG][DF][CE][B,D] [B,D]2 [A,C]2 | %6
 [CF]2 (EF) [FB]2 [FA]2 | [EA]2 [EG]2 [CF]4 | [EG]2 [Ec]2 [CE]2 [EA]2 | %9
 [DG][DA][DG][DF] [DF]2 [CE]2 | [EG]2 [Ec]2 [Ge]2 [Gc]2 | [Fc]2 [F=B]2 [Ec]4 | %12
 [FA]2 [Fc]2 [CF]2 [FA]2 | [DG][DF][CE][B,D] [B,D]2 [A,C]2 | [CF]2 (EF) [FB]2 [FA]2 | %15
 [EA]2 [EG]2 [CF]4 |] %16
V:2
 x8 | x8 | x2 C2 x4 | x2 (DF) x4 | x8 | x8 | x2 C2 x4 | x8 | x8 | x8 | x8 | x8 | x8 | x8 | %14
 x2 C2 x4 | x8 |] %16
V:3
 [F,C]2 [F,A,]2 [F,A,]2 [F,C]2 | [B,,B,][B,,B,][B,,F,][B,,F,] F,2 F,2 | %2
 [F,A,]2 (G,A,) [F,D]2 [F,C]2 | [G,=B,]2 [G,B,]2 [C,C]4 | [F,C]2 [F,A,]2 [F,A,]2 [F,C]2 | %5
 [B,,B,][B,,B,][B,,F,][D,F,] F,2 F,2 | [F,A,]2 (G,A,) [F,D]2 [F,C]2 | [C,C]2 [C,B,]2 [F,A,]4 | %8
 [C,C]2 [C,G,]2 [C,G,]2 [C,C]2 | [=B,,G,][B,,G,][B,,G,][B,,G,] [B,,G,]2 [B,,G,]2 | %10
 [C,C]2 [C,G,]2 [C,C]2 [E,C]2 | [G,D]2 [G,D]2 [C,C]4 | [F,C]2 [F,A,]2 [F,A,]2 [F,C]2 | %13
 [B,,B,][B,,B,][B,,F,][D,F,] F,2 F,2 | [F,A,]2 (G,A,) [F,D]2 [F,C]2 | [C,C]2 [C,B,]2 [F,A,]4 |] %16
V:4
 x8 | x4 F,2 F,2 | x2 F,2 x4 | x8 | x8 | x4 F,2 F,2 | x2 F,2 x4 | x8 | x8 | x8 | x8 | x8 | x8 | %13
 x4 F,2 F,2 | x2 F,2 x4 | x8 |] %16

